resources/icons/16px/property.svg

<svg xmlns="http://www.w3.org/2000/svg" viewBox="0 0 16 16">
  <path d="M3 12c-1.1 0-2 .9-2 2s.9 2 2 2 2-.9 2-2-.9-2-2-2m-.5-6.5a2.5 2.5 0 0 0 0 5 2.5 2.5 0 0 0 0-5M7 3h8c.55 0 1-.45 1-1s-.45-1-1-1H7c-.55 0-1 .45-1 1s.45 1 1 1m8 10H7c-.55 0-1 .45-1 1s.45 1 1 1h8c.55 0 1-.45 1-1s-.45-1-1-1M3 0C1.9 0 1 .9 1 2s.9 2 2 2 2-.9 2-2-.9-2-2-2m12 6H7c-.55 0-1 .45-1 1v2c0 .55.45 1 1 1h8c.55 0 1-.45 1-1V7c0-.55-.45-1-1-1"/>
</svg>

<?xml version="1.0" encoding="utf-8"?>
<!-- Generator: Adobe Illustrator 17.1.0, SVG Export Plug-In . SVG Version: 6.00 Build 0)  -->
<!DOCTYPE svg PUBLIC "-//W3C//DTD SVG 1.1//EN" "http://www.w3.org/Graphics/SVG/1.1/DTD/svg11.dtd">
<svg version="1.1" id="Layer_1" xmlns="http://www.w3.org/2000/svg" xmlns:xlink="http://www.w3.org/1999/xlink" x="0px" y="0px"
	 viewBox="0 0 16 16" enable-background="new 0 0 16 16" xml:space="preserve">
<g id="property_3_">
	<g>
		<path fill-rule="evenodd" clip-rule="evenodd" d="M3,12c-1.1,0-2,0.9-2,2c0,1.1,0.9,2,2,2s2-0.9,2-2C5,12.9,4.1,12,3,12z M2.5,5.5
			C1.12,5.5,0,6.62,0,8c0,1.38,1.12,2.5,2.5,2.5S5,9.38,5,8C5,6.62,3.88,5.5,2.5,5.5z M7,3h8c0.55,0,1-0.45,1-1c0-0.55-0.45-1-1-1H7
			C6.45,1,6,1.45,6,2C6,2.55,6.45,3,7,3z M15,13H7c-0.55,0-1,0.45-1,1c0,0.55,0.45,1,1,1h8c0.55,0,1-0.45,1-1
			C16,13.45,15.55,13,15,13z M3,0C1.9,0,1,0.9,1,2s0.9,2,2,2s2-0.9,2-2S4.1,0,3,0z M15,6H7C6.45,6,6,6.45,6,7v2c0,0.55,0.45,1,1,1h8
			c0.55,0,1-0.45,1-1V7C16,6.45,15.55,6,15,6z"/>
	</g>
</g>
</svg>
